X:826
T:Miller Of Droghan, The
S:Lunasa
Z:Nigel Gatherer
M:4/4
L:1/8
K:G
z2    | G2 BG DGBG  | EBef gedB | G2 BG DGBA  | GEGA BdBA  | 
        G2 BG DGBG  | EBef gfed | faef  deBA  | GEGA B2   || 
(3Bcd | eE E2 DEB,E | DEGA B3 A | GE E2 DEB,E | DEGA B2 
(3Bcd | eE E2 DEB,E | DEGA B3 A | GE E2 DEB,E | DEGA B2   ||
<end>
<start>
